svg/24/image--filled.svg

<svg width="24" height="24" viewBox="0 0 24 24" fill="currentColor" xmlns="http://www.w3.org/2000/svg"><path d="M15.5 11C16.8807 11 18 9.88071 18 8.5C18 7.11929 16.8807 6 15.5 6C14.1193 6 13 7.11929 13 8.5C13 9.88071 14.1193 11 15.5 11Z"/><path fill-rule="evenodd" clip-rule="evenodd" d="M3 5C3 3.89543 3.89543 3 5 3H19C20.1046 3 21 3.89543 21 5V19C21 20.1046 20.1046 21 19 21H5C3.89543 21 3 20.1046 3 19V5ZM5 4.5H19C19.2761 4.5 19.5 4.72386 19.5 5V14.4393L17.5303 12.4697C17.2374 12.1768 16.7626 12.1768 16.4697 12.4697L14 14.9393L9.53033 10.4697C9.23744 10.1768 8.76256 10.1768 8.46967 10.4697L4.5 14.4393V5C4.5 4.72386 4.72386 4.5 5 4.5Z"/></svg>

<svg xmlns="http://www.w3.org/2000/svg" width="24" height="24" fill="currentColor" viewBox="0 0 24 24">
  <path d="M15.5 11a2.5 2.5 0 1 0 0-5 2.5 2.5 0 0 0 0 5Z"/>
  <path fill-rule="evenodd" d="M3 5a2 2 0 0 1 2-2h14a2 2 0 0 1 2 2v14a2 2 0 0 1-2 2H5a2 2 0 0 1-2-2V5Zm2-.5h14a.5.5 0 0 1 .5.5v9.44l-1.97-1.97a.75.75 0 0 0-1.06 0L14 14.94l-4.47-4.47a.75.75 0 0 0-1.06 0L4.5 14.44V5a.5.5 0 0 1 .5-.5Z" clip-rule="evenodd"/>
</svg>
